**kern
*staff3
*tb24
=1-
*clefF4
*k[b-e-a-]
*M4/4
[2.EE-/ [2.BB-/ [2.E-/
.
.
.
.
.
.
.
.
.
.
.
.
.
.
.
.
.
4EE-/] 4BB-/] 4D/
.
.
.
.
.
=2
2.EE-/ 2.BB-/ 2.E-/]
.
.
.
.
.
.
.
.
.
.
.
.
.
.
.
.
.
4DD/ 4D/
.
.
.
.
.
=3
1EE-/ 1BB-/ 1E-/
.
.
.
.
.
.
.
.
.
.
.
.
.
.
.
.
.
.
.
.
.
.
.
=4
!!linebreak:original
1AAA-/ 1AA-/
.
.
.
.
.
.
.
.
.
.
.
.
.
.
.
.
.
.
.
.
.
.
.
=5
1BBB-/ 1BB-/
.
.
.
.
.
.
.
.
.
.
.
.
.
.
.
.
.
.
.
.
.
.
.
=6
[1EE-/ [1BB-/ [1E-/
.
.
.
.
.
.
.
.
.
.
.
.
.
.
.
.
.
.
.
.
.
.
.
=7
!!linebreak:original
2.EE-/] 2.BB-/] 2.E-/]
.
.
.
.
.
.
.
.
.
.
.
.
.
.
.
.
.
4BBB-/ 4BB-/
.
.
.
.
.
=8
1EE-/ 1E-/
.
.
.
.
.
.
.
.
.
.
.
.
.
.
.
.
.
.
.
.
.
.
.
=9
1EE-/ 1E-/
.
.
.
.
.
.
.
.
.
.
.
.
.
.
.
.
.
.
.
.
.
.
.
=10
!!linebreak:original
4DD/ 4D/
.
.
.
.
.
4CC/ 4C/
.
.
.
.
.
2BBB-/ 2BB-/
.
.
.
.
.
.
.
.
.
.
.
=11
1EE-/ 1E-/
.
.
.
.
.
.
.
.
.
.
.
.
.
.
.
.
.
.
.
.
.
.
.
=12
2CC/ 2C/
.
.
.
.
.
.
.
.
.
.
.
2FFF/ 2FF/
.
.
.
.
.
.
.
.
.
.
.
=13
!!linebreak:original
4r
.
.
.
.
.
4FFF/ 4FF/
.
.
.
.
.
4BBB-/ 4BB-/
.
.
.
.
.
4BBB-/ 4BB-/
.
.
.
.
.
=14
4CC/ 4C/
.
.
.
.
.
4CCC/ 4CC/
.
.
.
.
.
2FFF/ 2FF/
.
.
.
.
.
.
.
.
.
.
.
=15
2r
.
.
.
.
.
.
.
.
.
.
.
4r
.
.
.
.
.
4FF/ 4F/
.
.
.
.
.
=16
!!linebreak:original
4EE-/ 4E-/
.
.
.
.
.
4GG/ 4G/
.
.
.
.
.
2CC/ 2C/
.
.
.
.
.
.
.
.
.
.
.
=17
2r
.
.
.
.
.
.
.
.
.
.
.
4r
.
.
.
.
.
4FF#/ 4F#/
.
.
.
.
.
=18
4.GG/ 4.G/
.
.
.
.
.
.
.
.
8GGG/ 8GG/
.
.
2CC/ 2C/
.
.
.
.
.
.
.
.
.
.
.
=19
!!linebreak:original
2r
.
.
.
.
.
.
.
.
.
.
.
([2FF/ [2F/
.
.
.
.
.
.
.
.
.
.
.
=20
2FF/]) 2F/]
.
.
.
.
.
.
.
.
.
.
.
([2BBB-/ [2BB-/
.
.
.
.
.
.
.
.
.
.
.
=21
2BBB-/]) 2BB-/]
.
.
.
.
.
.
.
.
.
.
.
[2GG/ [2G/ [2A-/
.
.
.
.
.
.
.
.
.
.
.
=22
!!linebreak:original
2GG/] 2G/]
.
.
.
.
.
.
.
.
.
.
.
[2CC/ [2C/ [2D/
.
.
.
.
.
.
.
.
.
.
.
=23
2CC/] 2C/]
.
.
.
.
.
.
.
.
.
.
.
4r
.
.
.
.
.
4GGG/ 4GG/
.
.
.
.
.
=24
4AAA-/ 4AA-/
.
.
.
.
.
4AAA-/ 4AA-/
.
.
.
.
.
4r
.
.
.
.
.
4AAAn/ 4AAn/
.
.
.
.
.
=25
!!linebreak:original
4BBB-/ 4BB-/
.
.
.
.
.
4BBB-/ 4BB-/
.
.
.
.
.
4r
.
.
.
.
.
4CC/ 4C/
.
.
.
.
.
=26
4BBB-/ 4BB-/
.
.
.
.
.
4BBB-/ 4BB-/
.
.
.
.
.
[2EE-/ [2E-/ [2F/
.
.
.
.
.
.
.
.
.
.
.
=27
2EE-/] 2E-/]
.
.
.
.
.
.
.
.
.
.
.
[2EE-/ [2E-/ 2F/_
.
.
.
.
.
.
.
.
.
.
.
=28
!!linebreak:original
1EE-/] 1E-/]
.
.
.
.
.
.
.
.
.
.
.
.
.
.
.
.
.
.
.
.
.
.
.
=29
1EE-/ 1E-/
.
.
.
.
.
.
.
.
.
.
.
.
.
.
.
.
.
.
.
.
.
.
.
=30
!!linebreak:original
1EE-/ 1E-/
.
.
.
.
.
.
.
.
.
.
.
.
.
.
.
.
.
.
.
.
.
.
.
=31
*^
4.BB-/	2EE-\
.	.
.	.
.	.
.	.
.	.
.	.
.	.
.	.
8AA-/	.
.	.
.	.
*v	*v
8GG/L
.
.
8FF#/
.
.
8GG/
.
.
8FF#/J
.
.
=32
*^
4GG/	4EE-\
.	.
.	.
.	.
.	.
.	.
*v	*v
4r
.
.
.
.
.
2r
.
.
.
.
.
.
.
.
.
.
.
==
*-
